X: 24
T:Lady Spellor
M:6/8
L:1/8
Q:110
R:Jig
K:GMix
d2d d2d|d3 B3|c2B c2d|e3 c3|A2A A2B|c2d e2c|d2c B2A|B3 G3||
d2d d2d|d3 B3|c2B c2d|e3 c3|A2A A2B|c2B c2d|e2c d2c|B3 G3||

